X:1
T:Title
%%score { 1 | 2 } { 3 | 4 }
L:1/8
M:3/4
K:G
V:1 treble nm="Grand Piano, Piano"
V:2 bass 
V:3 bass nm="Grand Piano, Piano"
V:4 bass 
V:1
 z2 z2[Q:1/4=100] D>E | D2 G2 E2 | F4 D>D | D2 G2 B2 |[M:2/4] d4 |[M:1/4] D>E |[M:3/4] D2 G2 E2 | %7
w: 1.~There's~ a~|song~ in~ the~|air!~ There's~ a~|star~ in~ the~|sky!~|There's~ a~|mo ther's~ deep~|
 F4 F>F | G2 F2 E2 |[M:2/4] D4 |[M:1/4] d>d |[M:3/4] e2 d2 B2 | A2 G2 E2 | D2 F2 A2 |[M:2/4] d4 | %15
w: prayer~ and~ a~|ba by's~ low~|cry!~|And~ the~|star~ rains~ its~|fire~ while~ the~|beau ti ful~|sing,~|
[M:1/4] d>d |[M:3/4] e2 d2 B2 | A2 G2 c2 | B2 A2 D2 |[M:2/4] G4 |] %20
w: for~ the~|man ger~ of~|Beth le hem~|cra dles~ a~|King!~|
V:2
 z2 z2 B,>B, | B,2 B,2 B,2 | C4 C>C | B,2 D2 G2 |[M:2/4] F4 |[M:1/4] C>C |[M:3/4] B,2 D2 D2 | %7
 D4 D>D | ^C2 C2 C2 |[M:2/4] z4 |[M:1/4] F>F |[M:3/4] G2 G2 D2 | B,2 B,2 B,2 | C2 C2[K:treble] C2 | %14
[M:2/4] C4 |[M:1/4] F>F |[M:3/4] =F2 F2 F2 | E2 E2 G2 | F2 F2 z2 |[M:2/4] D4 |] %20
V:3
 z2 z2 G,>G, | G,2 D,2 D,2 | D,4 F,>F, | G,2 B,2 D2 |[M:2/4] C4 |[M:1/4] F,>F, | %6
[M:3/4] G,2 B,2 _B,2 | A,4 A,>A, | B,2 A,2 G,2 |[M:2/4] F,4 |[M:1/4] C>C |[M:3/4] B,2 B,2 G,2 | %12
 D,2 D,2 G,2 | F,2 A,2 F,2 |[M:2/4] F,4 |[M:1/4][K:treble] C>C |[M:3/4] B,2 B,2 D2 | C2 C2 ^D2 | %18
 D2 C2 C2 |[M:2/4] B,4 |] %20
V:4
 z2 z2 G,,>G,, | G,,2 G,,2 G,,2 | A,,4 D,>D, | z2 G,2 G,2 |[M:2/4] A,4 |[M:1/4] D,>D, | %6
[M:3/4] z2 G,,2 G,,2 | A,,4 A,,>A,, | A,,2 A,,2 A,,2 |[M:2/4] D,4 |[M:1/4] D,>D, | %11
[M:3/4] G,2 G,2 z2 | G,,2 G,,2 G,,2 | A,,2 A,,2 D,2 |[M:2/4] D,4 |[M:1/4] D,>D, | %16
[M:3/4] G,2 G,2 G,2 | z2 z2 A,2 | D,2 D,2 D,2 |[M:2/4] G,,4 |] %20

